**harm	**harte	**kern	**silbe	**kern	**silbe	**kern	**silbe	**rhyme	**timestamp	**phrase	**leadinstrument
*M4/4	*M4/4	*ICvox	*	*ICvox	*	*ICvox	*	*	*	*	*
*g:	*g:	*g:	*	*g:	*	*g:	*	*	*	*	*
*	*	*VRlead	*	*VRharmonize*VRresponse	*	*VRharmonize*VRresponse*VRbacking	*	*	*	*	*
*	*	*Hstimme	*	*Nstimme	*	*Nstimme	*	*	*	*	*
*	*	*M4/4	*	*M4/4	*	*M4/4	*	*	*	*	*
*	*	*clefG2	*	*clefG2	*	*clefG2	*	*	*	*	*
1r;	N	r;	.	r;	.	r;	.	.	0	.	r
=1	=1	=1	=1	=1	=1	=1	=1	=1	=1	=1	=1
*>Letter>A	*>Letter>A	*>Letter>A	*>Letter>A	*>Letter>A	*>Letter>A	*>Letter>A	*>Letter>A	*>Letter>A	*>Letter>A	*>Letter>A	*>Letter>A
*>Label>Intro	*>Label>Intro	*>Label>Intro	*>Label>Intro	*>Label>Intro	*>Label>Intro	*>Label>Intro	*>Label>Intro	*>Label>Intro	*>Label>Intro	*>Label>Intro	*>Label>Intro
1i	G:1	1r	.	1r	.	1r	.	.	0.07	newline	r
=2	=2	=2	=2	=2	=2	=2	=2	=2	=2	=2	=2
1i	G:1	1r	.	1r	.	1r	.	.	1.786	.	r
=3	=3	=3	=3	=3	=3	=3	=3	=3	=3	=3	=3
1vi	E:1	1r	.	1r	.	1r	.	.	3.503	.	r
=4	=4	=4	=4	=4	=4	=4	=4	=4	=4	=4	=4
1vi	E:1	1r	.	1r	.	1r	.	.	5.22	.	r
=5	=5	=5	=5	=5	=5	=5	=5	=5	=5	=5	=5
1i	G:1	1r	.	1r	.	1r	.	.	6.937	newline	r
=6	=6	=6	=6	=6	=6	=6	=6	=6	=6	=6	=6
1i	G:1	1r	.	1r	.	1r	.	.	8.678	.	r
=7	=7	=7	=7	=7	=7	=7	=7	=7	=7	=7	=7
1v	D:1	1r	.	1r	.	1r	.	.	10.42	newline	r
=8	=8	=8	=8	=8	=8	=8	=8	=8	=8	=8	=8
1v	D:1	1r	.	1r	.	1r	.	.	12.169	.	r
=9	=9	=9	=9	=9	=9	=9	=9	=9	=9	=9	=9
1r	N	1r	.	1r	.	1r	.	.	13.918	.	r
=10	=10	=10	=10	=10	=10	=10	=10	=10	=10	=10	=10
1r	N	1r	.	1r	.	1r	.	.	15.667	.	r
=11	=11	=11	=11	=11	=11	=11	=11	=11	=11	=11	=11
1r	N	1r	.	1r	.	1r	.	.	17.416	newline	r
=12	=12	=12	=12	=12	=12	=12	=12	=12	=12	=12	=12
1r	N	1r	.	1r	.	1r	.	.	19.057	.	r
=13	=13	=13	=13	=13	=13	=13	=13	=13	=13	=13	=13
1r	N	1r	.	1r	.	1r	.	.	20.698	.	r
=14	=14	=14	=14	=14	=14	=14	=14	=14	=14	=14	=14
1r	N	1r	.	1r	.	1r	.	.	22.339	.	r
=15	=15	=15	=15	=15	=15	=15	=15	=15	=15	=15	=15
*>Letter>B2	*>Letter>B2	*>Letter>B2	*>Letter>B2	*>Letter>B2	*>Letter>B2	*>Letter>B2	*>Letter>B2	*>Letter>B2	*>Letter>B2	*>Letter>B2	*>Letter>B2
*>Label>Intro	*>Label>Intro	*>Label>Intro	*>Label>Intro	*>Label>Intro	*>Label>Intro	*>Label>Intro	*>Label>Intro	*>Label>Intro	*>Label>Intro	*>Label>Intro	*>Label>Intro
*e-:	*e-:	*e-:	*	*e-:	*	*e-:	*	*	*	*	*
1i	E-:min	1r	.	1r	.	1r	.	.	23.979	newline	guitar
=16	=16	=16	=16	=16	=16	=16	=16	=16	=16	=16	=16
1-VII	D-:maj	1r	.	1r	.	1r	.	.	25.787	.	guitar
=17	=17	=17	=17	=17	=17	=17	=17	=17	=17	=17	=17
1i	E-:min	1r	.	1r	.	1r	.	.	27.595	.	guitar
=18	=18	=18	=18	=18	=18	=18	=18	=18	=18	=18	=18
1-VII	D-:maj	1r	.	1r	.	1r	.	.	29.402	.	guitar
=19	=19	=19	=19	=19	=19	=19	=19	=19	=19	=19	=19
1i	E-:min	1r	.	1r	.	1r	.	.	31.21	newline	guitar
=20	=20	=20	=20	=20	=20	=20	=20	=20	=20	=20	=20
1-VII	D-:maj	1r	.	1r	.	1r	.	.	32.978	.	guitar
=21	=21	=21	=21	=21	=21	=21	=21	=21	=21	=21	=21
1i	E-:min	1r	.	1r	.	1r	.	.	34.747	.	guitar
=22	=22	=22	=22	=22	=22	=22	=22	=22	=22	=22	=22
1-VII	D-:maj	1r	.	1r	.	1r	.	.	36.515	.	guitar
=23	=23	=23	=23	=23	=23	=23	=23	=23	=23	=23	=23
*>Letter>C	*>Letter>C	*>Letter>C	*>Letter>C	*>Letter>C	*>Letter>C	*>Letter>C	*>Letter>C	*>Letter>C	*>Letter>C	*>Letter>C	*>Letter>C
*>Label>Verse	*>Label>Verse	*>Label>Verse	*>Label>Verse	*>Label>Verse	*>Label>Verse	*>Label>Verse	*>Label>Verse	*>Label>Verse	*>Label>Verse	*>Label>Verse	*>Label>Verse
1i	E-:min	8r	.	1r	.	1r	.	.	38.283	newline	voice
.	.	8b-	They	.	.	.	.	.	.	.	.
.	.	8a-	told	.	.	.	.	.	.	.	.
.	.	8b-	him	.	.	.	.	.	.	.	.
.	.	8a-	don't	.	.	.	.	.	.	.	.
.	.	8b-	you	.	.	.	.	.	.	.	.
.	.	8a-	e-	.	.	.	.	.	.	.	.
.	.	8b-	-ver	.	.	.	.	.	.	.	.
=24	=24	=24	=24	=24	=24	=24	=24	=24	=24	=24	=24
1-VII	D-:maj	8dd-	come	1r	.	1r	.	.	39.944	.	voice
.	.	8b-	a-	.	.	.	.	.	.	.	.
.	.	4a-	-round	.	.	.	.	.	.	.	.
.	.	4b-	here	.	.	.	.	A	.	.	.
.	.	8r	.	.	.	.	.	.	.	.	.
.	.	8b-	Don't	.	.	.	.	.	.	.	.
=25	=25	=25	=25	=25	=25	=25	=25	=25	=25	=25	=25
1i	E-:min	8b-	want	1r	.	1r	.	.	41.605	.	voice
.	.	8b-	to	.	.	.	.	.	.	.	.
.	.	8b-	see	.	.	.	.	.	.	.	.
.	.	8b-	your	.	.	.	.	.	.	.	.
.	.	8b-	face	.	.	.	.	.	.	.	.
.	.	8b-	you	.	.	.	.	.	.	.	.
.	.	8a-	bet-	.	.	.	.	.	.	.	.
.	.	8g-	-ter	.	.	.	.	.	.	.	.
=26	=26	=26	=26	=26	=26	=26	=26	=26	=26	=26	=26
1-VII	D-:maj	8a-	dis-	1r	.	1r	.	.	43.266	.	voice
.	.	8g-	-a-	.	.	.	.	.	.	.	.
.	.	4b-	-ppear	.	.	.	.	A	.	.	.
.	.	4r	.	.	.	.	.	.	.	.	.
.	.	8r	.	.	.	.	.	.	.	.	.
.	.	8b-	The	.	.	.	.	.	.	.	.
=27	=27	=27	=27	=27	=27	=27	=27	=27	=27	=27	=27
1-VI	C-:maj	8a-	fi-	1r	.	1r	.	.	44.926	newline	voice
.	.	8g-	-re's	.	.	.	.	.	.	.	.
.	.	8e-	in	.	.	.	.	.	.	.	.
.	.	8d-	their	.	.	.	.	.	.	.	.
.	.	4e-	eyes	.	.	.	.	.	.	.	.
.	.	8d-	and	.	.	.	.	.	.	.	.
.	.	8e-	their	.	.	.	.	.	.	.	.
=28	=28	=28	=28	=28	=28	=28	=28	=28	=28	=28	=28
1-VII	D-:maj	8f	words	2r	.	1r	.	.	46.659	.	voice
.	.	8e-	are	.	.	.	.	.	.	.	.
.	.	8d-	rea-	.	.	.	.	.	.	.	.
.	.	8B-	-lly	.	.	.	.	.	.	.	.
.	.	4d-	clear	4r	.	.	.	A	.	.	.
.	.	4e-	So	4e-	So	.	.	.	.	.	.
=29	=29	=29	=29	=29	=29	=29	=29	=29	=29	=29	=29
1i	E-:min	8g-	beat	8g-	beat	1r	.	B	48.392	.	voice
.	.	8e-	it	8e-	it	.	.	.	.	.	.
.	.	4r	.	4r	.	.	.	.	.	.	.
.	.	4r	.	4r	.	.	.	.	.	.	.
.	.	4e-	Just	4e-	Just	.	.	.	.	.	.
=30	=30	=30	=30	=30	=30	=30	=30	=30	=30	=30	=30
1-VII	D-:maj	8f	beat	8f	beat	1r	.	B	50.125	.	voice
.	.	8d-	it	8d-	it	.	.	.	.	.	.
.	.	4r	.	4r	.	.	.	.	.	.	.
.	.	2r	.	2r	.	.	.	.	.	.	.
=31	=31	=31	=31	=31	=31	=31	=31	=31	=31	=31	=31
1i	E-:min	8r	.	1r	.	1r	.	.	51.858	newline	voice
.	.	8b-	You	.	.	.	.	.	.	.	.
.	.	8a-	bet-	.	.	.	.	.	.	.	.
.	.	8b-	-ter	.	.	.	.	.	.	.	.
.	.	8b-	run	.	.	.	.	.	.	.	.
.	.	8b-	you	.	.	.	.	.	.	.	.
.	.	8a-	bet-	.	.	.	.	.	.	.	.
.	.	8b-	-ter	.	.	.	.	.	.	.	.
=32	=32	=32	=32	=32	=32	=32	=32	=32	=32	=32	=32
1-VII	D-:maj	8dd-	do	1r	.	1r	.	.	53.586	.	voice
.	.	8b-	what	.	.	.	.	.	.	.	.
.	.	4a-	you	.	.	.	.	.	.	.	.
.	.	4b-	can	.	.	.	.	C	.	.	.
.	.	8r	.	.	.	.	.	.	.	.	.
.	.	8b-	Don't	.	.	.	.	.	.	.	.
=33	=33	=33	=33	=33	=33	=33	=33	=33	=33	=33	=33
1i	E-:min	8b-	want	1r	.	1r	.	.	55.314	.	voice
.	.	8b-	to	.	.	.	.	.	.	.	.
.	.	8b-	see	.	.	.	.	.	.	.	.
.	.	8b-	no	.	.	.	.	.	.	.	.
.	.	8a-	blood	.	.	.	.	.	.	.	.
.	.	8b-	don't	.	.	.	.	.	.	.	.
.	.	8a-	be	.	.	.	.	.	.	.	.
.	.	8g-	a	.	.	.	.	.	.	.	.
=34	=34	=34	=34	=34	=34	=34	=34	=34	=34	=34	=34
1-VII	D-:maj	8a-	ma-	1r	.	1r	.	.	57.042	.	voice
.	.	8g-	-cho	.	.	.	.	.	.	.	.
.	.	4b-	man	.	.	.	.	C	.	.	.
.	.	4r	.	.	.	.	.	.	.	.	.
.	.	8r	.	.	.	.	.	.	.	.	.
.	.	8b-	You	.	.	.	.	.	.	.	.
=35	=35	=35	=35	=35	=35	=35	=35	=35	=35	=35	=35
1-VI	C-:maj	8a-	want	1r	.	1r	.	.	58.77	newline	voice
.	.	8g-	to	.	.	.	.	.	.	.	.
.	.	4e-	be	.	.	.	.	.	.	.	.
.	.	8e-	tough	.	.	.	.	.	.	.	.
.	.	8r	.	.	.	.	.	.	.	.	.
.	.	8d-	bet-	.	.	.	.	.	.	.	.
.	.	8e-	-ter	.	.	.	.	.	.	.	.
=36	=36	=36	=36	=36	=36	=36	=36	=36	=36	=36	=36
1-VII	D-:maj	8f	do	2r	.	1r	.	.	60.545	.	voice
.	.	8e-	what	.	.	.	.	.	.	.	.
.	.	4d-	you	.	.	.	.	.	.	.	.
.	.	4d-	can	4r	.	.	.	C	.	.	.
.	.	4e-	So	4e-	So	.	.	.	.	.	.
=37	=37	=37	=37	=37	=37	=37	=37	=37	=37	=37	=37
1i	E-:min	8g-	beat	8g-	beat	1r	.	B	62.319	.	voice
.	.	8e-	it	8e-	it	.	.	.	.	.	.
.	.	4r	.	4r	.	.	.	.	.	.	.
.	.	4r	.	2r	.	.	.	.	.	.	.
.	.	8b-	but	.	.	.	.	.	.	.	.
.	.	8b-	you	.	.	.	.	.	.	.	.
=38	=38	=38	=38	=38	=38	=38	=38	=38	=38	=38	=38
1-VII	D-:maj	8dd-	want	1r	.	1r	.	.	64.094	.	voice
.	.	8b-	to	.	.	.	.	.	.	.	.
.	.	4a-	be	.	.	.	.	.	.	.	.
.	.	4b-	bad	.	.	.	.	.	.	.	.
.	.	4a-	Just	.	.	.	.	.	.	.	.
=39	=39	=39	=39	=39	=39	=39	=39	=39	=39	=39	=39
*>Letter>B	*>Letter>B	*>Letter>B	*>Letter>B	*>Letter>B	*>Letter>B	*>Letter>B	*>Letter>B	*>Letter>B	*>Letter>B	*>Letter>B	*>Letter>B
*>Label>Chorus	*>Label>Chorus	*>Label>Chorus	*>Label>Chorus	*>Label>Chorus	*>Label>Chorus	*>Label>Chorus	*>Label>Chorus	*>Label>Chorus	*>Label>Chorus	*>Label>Chorus	*>Label>Chorus
1i	E-:min	8b-	beat	2r	.	1r	.	.	65.869	newline	voice
.	.	4.b-	it	.	.	.	.	.	.	.	.
.	.	2r	.	8e- 8g-	Beat	.	.	.	.	.	.
.	.	.	.	4.e- 4.g-	it	.	.	.	.	.	.
=40	=40	=40	=40	=40	=40	=40	=40	=40	=40	=40	=40
1-VII	D-:maj	8b-	Beat	2r	.	1r	.	B	67.548	.	voice
.	.	4.b-	it	.	.	.	.	.	.	.	.
.	.	4r	.	8d- 8f	Beat	.	.	B	.	.	.
.	.	.	.	8d- 8f	it	.	.	.	.	.	.
.	.	8r	.	8r	.	.	.	.	.	.	.
.	.	[8b-	No	[8e- [8g-	No	.	.	.	.	.	.
=41	=41	=41	=41	=41	=41	=41	=41	=41	=41	=41	=41
1i	E-:min	8b-]	_	8e-] 8g-]	_	1r	.	.	69.227	.	voice
.	.	8b-	one	8e- 8g-	one	.	.	.	.	.	.
.	.	8b-	wants	8e- 8g-	wants	.	.	.	.	.	.
.	.	8b-	to	8e- 8g-	to	.	.	.	.	.	.
.	.	4dd-	be	4g- 4b-	be	.	.	B	.	.	.
.	.	8b-	de-	8e- 8g-	de-	.	.	b	.	.	.
.	.	[8dd-	-feat	[8f [8a-	-feat-	.	.	B	.	.	.
=42	=42	=42	=42	=42	=42	=42	=42	=42	=42	=42	=42
1-VII	D-:maj	8dd-]	_	8f] 8a-]	_	1r	.	.	70.907	.	voice
.	.	8dd-	ed	8f 8a-	-ed	.	.	.	.	.	.
.	.	4r	.	4r	.	.	.	.	.	.	.
.	.	4r	.	2r	.	.	.	.	.	.	.
.	.	8r	.	.	.	.	.	.	.	.	.
.	.	[8a-	Show	.	.	.	.	.	.	.	.
=43	=43	=43	=43	=43	=43	=43	=43	=43	=43	=43	=43
1i	E-:min	8a-]	_	1r	.	1r	.	.	72.586	newline	voice
.	.	8g-	in'	.	.	.	.	.	.	.	.
.	.	8a-	how	.	.	.	.	.	.	.	.
.	.	8r	.	.	.	.	.	.	.	.	.
.	.	8g-	fun-	.	.	.	.	.	.	.	.
.	.	8a-	-ky	.	.	.	.	b	.	.	.
.	.	8r	.	.	.	.	.	.	.	.	.
.	.	[8a-	strong	.	.	.	.	.	.	.	.
=44	=44	=44	=44	=44	=44	=44	=44	=44	=44	=44	=44
1-VII	D-:maj	8a-]	_	1r	.	1r	.	.	74.312	.	voice
.	.	8g-	is	.	.	.	.	.	.	.	.
.	.	8a-	your	.	.	.	.	.	.	.	.
.	.	8r	.	.	.	.	.	.	.	.	.
.	.	8g-	fight	.	.	.	.	D	.	.	.
.	.	8r	.	.	.	.	.	.	.	.	.
.	.	8r	.	.	.	.	.	.	.	.	.
.	.	[8a-	It	.	.	.	.	.	.	.	.
=45	=45	=45	=45	=45	=45	=45	=45	=45	=45	=45	=45
1i	E-:min	8a-]	_	1r	.	1r	.	.	76.039	.	voice
.	.	8g-	does-	.	.	.	.	.	.	.	.
.	.	8a-	-n't	.	.	.	.	.	.	.	.
.	.	8r	.	.	.	.	.	.	.	.	.
.	.	8g-	mat-	.	.	.	.	.	.	.	.
.	.	8a-	-ter	.	.	.	.	.	.	.	.
.	.	8r	.	.	.	.	.	.	.	.	.
.	.	[8a-	who's	.	.	.	.	.	.	.	.
=46	=46	=46	=46	=46	=46	=46	=46	=46	=46	=46	=46
1-VII	D-:maj	8a-]	_	1r	.	1r	.	.	77.765	.	voice
.	.	8g-	wrong	.	.	.	.	.	.	.	.
.	.	8a-	or	.	.	.	.	.	.	.	.
.	.	8r	.	.	.	.	.	.	.	.	.
.	.	8g-	right	.	.	.	.	D	.	.	.
.	.	8r	.	.	.	.	.	.	.	.	.
.	.	4a-	Just	.	.	.	.	.	.	.	.
=47	=47	=47	=47	=47	=47	=47	=47	=47	=47	=47	=47
1i	E-:min	8g-	beat	2r	.	2r	.	B	79.491	newline	voice
.	.	8e-	it	.	.	.	.	.	.	.	.
.	.	4r	.	.	.	.	.	.	.	.	.
.	.	4r	.	8g-	Beat	8E-	Beat	B	.	.	.
.	.	.	.	8e-	it	8E-	it	.	.	.	.
.	.	8e-	Just	4r	.	4r	.	.	.	.	.
.	.	8r	.	.	.	.	.	.	.	.	.
=48	=48	=48	=48	=48	=48	=48	=48	=48	=48	=48	=48
1-VII	D-:maj	8f	beat	4r	.	1r	.	B	81.221	.	voice
.	.	8d-	it	.	.	.	.	.	.	.	.
.	.	4r	.	8a-	beat	.	.	B	.	.	.
.	.	.	.	8f	it	.	.	.	.	.	.
.	.	4r	.	2r	.	.	.	.	.	.	.
.	.	4a-	Just	.	.	.	.	.	.	.	.
=49	=49	=49	=49	=49	=49	=49	=49	=49	=49	=49	=49
1i	E-:min	8g-	beat	2r	.	2r	.	B	82.951	.	voice
.	.	8e-	it	.	.	.	.	.	.	.	.
.	.	4r	.	.	.	.	.	.	.	.	.
.	.	4r	.	8g-	Beat	8E-	Beat	B	.	.	.
.	.	.	.	8e-	it	8E-	it	.	.	.	.
.	.	8e-	Just	4r	.	4r	.	.	.	.	.
.	.	8r	.	.	.	.	.	.	.	.	.
=50	=50	=50	=50	=50	=50	=50	=50	=50	=50	=50	=50
1-VII	D-:maj	8f	beat	4r	.	1r	.	B	84.681	.	voice
.	.	8d-	it	.	.	.	.	.	.	.	.
.	.	4r	.	8a-	Beat	.	.	B	.	.	.
.	.	.	.	8f	it	.	.	.	.	.	.
.	.	2r	.	2r	.	.	.	.	.	.	.
=51	=51	=51	=51	=51	=51	=51	=51	=51	=51	=51	=51
*>Letter>C	*>Letter>C	*>Letter>C	*>Letter>C	*>Letter>C	*>Letter>C	*>Letter>C	*>Letter>C	*>Letter>C	*>Letter>C	*>Letter>C	*>Letter>C
*>Label>Verse	*>Label>Verse	*>Label>Verse	*>Label>Verse	*>Label>Verse	*>Label>Verse	*>Label>Verse	*>Label>Verse	*>Label>Verse	*>Label>Verse	*>Label>Verse	*>Label>Verse
1i	E-:min	8r	.	1r	.	1r	.	.	86.411	newline	voice
.	.	8b-	They're	.	.	.	.	.	.	.	.
.	.	8a-	out	.	.	.	.	.	.	.	.
.	.	8b-	to	.	.	.	.	.	.	.	.
.	.	8a-	get	.	.	.	.	.	.	.	.
.	.	8b-	you	.	.	.	.	.	.	.	.
.	.	8a-	bet-	.	.	.	.	.	.	.	.
.	.	8b-	-ter	.	.	.	.	.	.	.	.
=52	=52	=52	=52	=52	=52	=52	=52	=52	=52	=52	=52
1-VII	D-:maj	8dd-	leave	1r	.	1r	.	.	88.159	.	voice
.	.	8b-	while	.	.	.	.	.	.	.	.
.	.	4a-	you	.	.	.	.	.	.	.	.
.	.	4b-	can	.	.	.	.	C	.	.	.
.	.	8r	.	.	.	.	.	.	.	.	.
.	.	8b-	Don't	.	.	.	.	.	.	.	.
=53	=53	=53	=53	=53	=53	=53	=53	=53	=53	=53	=53
1i	E-:min	8b-	want	1r	.	1r	.	.	89.907	.	voice
.	.	8b-	to	.	.	.	.	.	.	.	.
.	.	8b-	be	.	.	.	.	.	.	.	.
.	.	8b-	a	.	.	.	.	.	.	.	.
.	.	8a-	boy	.	.	.	.	.	.	.	.
.	.	8b-	you	.	.	.	.	.	.	.	.
.	.	8a-	want	.	.	.	.	.	.	.	.
.	.	8g-	to	.	.	.	.	.	.	.	.
=54	=54	=54	=54	=54	=54	=54	=54	=54	=54	=54	=54
1-VII	D-:maj	8a-	be	1r	.	1r	.	.	91.655	.	voice
.	.	8g-	a	.	.	.	.	.	.	.	.
.	.	4b-	man	.	.	.	.	C	.	.	.
.	.	4r	.	.	.	.	.	.	.	.	.
.	.	8r	.	.	.	.	.	.	.	.	.
.	.	8b-	You	.	.	.	.	.	.	.	.
=55	=55	=55	=55	=55	=55	=55	=55	=55	=55	=55	=55
1-VI	C-:maj	8a-	want	1r	.	1r	.	.	93.403	newline	voice
.	.	8g-	to	.	.	.	.	.	.	.	.
.	.	8e-	stay	.	.	.	.	.	.	.	.
.	.	8d-	a-	.	.	.	.	.	.	.	.
.	.	8e-	-live	.	.	.	.	.	.	.	.
.	.	8r	.	.	.	.	.	.	.	.	.
.	.	8d-	bet-	.	.	.	.	.	.	.	.
.	.	8e-	-ter	.	.	.	.	.	.	.	.
=56	=56	=56	=56	=56	=56	=56	=56	=56	=56	=56	=56
1-VII	D-:maj	8f	do	1r	.	1r	.	.	95.109	.	voice
.	.	8e-	what	.	.	.	.	.	.	.	.
.	.	4d-	you	.	.	.	.	.	.	.	.
.	.	8d-	can	.	.	.	.	C	.	.	.
.	.	8r	.	.	.	.	.	.	.	.	.
.	.	4e-	So	.	.	.	.	.	.	.	.
=57	=57	=57	=57	=57	=57	=57	=57	=57	=57	=57	=57
1i	E-:min	8g-	beat	1r	.	1r	.	B	96.815	.	voice
.	.	8e-	it	.	.	.	.	.	.	.	.
.	.	4r	.	.	.	.	.	.	.	.	.
.	.	4r	.	.	.	.	.	.	.	.	.
.	.	4e-	Just	.	.	.	.	.	.	.	.
=58	=58	=58	=58	=58	=58	=58	=58	=58	=58	=58	=58
1-VII	D-:maj	8f	beat	1r	.	1r	.	B	98.522	.	voice
.	.	8d-	it	.	.	.	.	.	.	.	.
.	.	4r	.	.	.	.	.	.	.	.	.
.	.	2r	.	.	.	.	.	.	.	.	.
=59	=59	=59	=59	=59	=59	=59	=59	=59	=59	=59	=59
1i	E-:min	8r	.	1r	.	1r	.	.	100.228	newline	voice
.	.	8b-	You	.	.	.	.	.	.	.	.
.	.	8a-	have	.	.	.	.	.	.	.	.
.	.	8b-	to	.	.	.	.	.	.	.	.
.	.	8a-	show	.	.	.	.	.	.	.	.
.	.	8b-	them	.	.	.	.	.	.	.	.
.	.	8a-	that	.	.	.	.	.	.	.	.
.	.	8b-	you're	.	.	.	.	.	.	.	.
=60	=60	=60	=60	=60	=60	=60	=60	=60	=60	=60	=60
1-VII	D-:maj	8dd-	rea-	1r	.	1r	.	.	101.949	.	voice
.	.	8b-	-lly	.	.	.	.	.	.	.	.
.	.	4a-	not	.	.	.	.	.	.	.	.
.	.	4b-	scared	.	.	.	.	E	.	.	.
.	.	8r	.	.	.	.	.	.	.	.	.
.	.	8b-	You're	.	.	.	.	.	.	.	.
=61	=61	=61	=61	=61	=61	=61	=61	=61	=61	=61	=61
1i	E-:min	8b-	play-	1r	.	1r	.	.	103.671	.	voice
.	.	8b-	-in'	.	.	.	.	.	.	.	.
.	.	8b-	with	.	.	.	.	.	.	.	.
.	.	8b-	your	.	.	.	.	.	.	.	.
.	.	8a-	life	.	.	.	.	.	.	.	.
.	.	8b-	this	.	.	.	.	.	.	.	.
.	.	8a-	ain't	.	.	.	.	.	.	.	.
.	.	8g-	no	.	.	.	.	.	.	.	.
=62	=62	=62	=62	=62	=62	=62	=62	=62	=62	=62	=62
1-VII	D-:maj	8a-	truth	1r	.	1r	.	.	105.393	.	voice
.	.	8g-	or	.	.	.	.	.	.	.	.
.	.	4b-	dare	.	.	.	.	E	.	.	.
.	.	4r	.	.	.	.	.	.	.	.	.
.	.	8r	.	.	.	.	.	.	.	.	.
.	.	8b-	They'll	.	.	.	.	.	.	.	.
=63	=63	=63	=63	=63	=63	=63	=63	=63	=63	=63	=63
1-VI	C-:maj	8a-	kick	1r	.	1r	.	.	107.115	newline	voice
.	.	8g-	you	.	.	.	.	.	.	.	.
.	.	8d-	then	.	.	.	.	.	.	.	.
.	.	8e-	they	.	.	.	.	.	.	.	.
.	.	8g-	beat	.	.	.	.	.	.	.	.
.	.	8e-	you	.	.	.	.	.	.	.	.
.	.	8d-	then	.	.	.	.	.	.	.	.
.	.	8e-	they'll	.	.	.	.	.	.	.	.
=64	=64	=64	=64	=64	=64	=64	=64	=64	=64	=64	=64
1-VII	D-:maj	8f	tell	2r	.	1r	.	.	108.844	.	voice
.	.	8e-	you	.	.	.	.	.	.	.	.
.	.	4d-	it's	.	.	.	.	.	.	.	.
.	.	4d-	fair	4r	.	.	.	E	.	.	.
.	.	4e-	So	4e-	So	.	.	.	.	.	.
=65	=65	=65	=65	=65	=65	=65	=65	=65	=65	=65	=65
1i	E-:min	8g-	beat	8g-	beat	1r	.	B	110.573	.	voice
.	.	8e-	it	8e-	it	.	.	.	.	.	.
.	.	4r	.	4r	.	.	.	.	.	.	.
.	.	4r	.	2r	.	.	.	.	.	.	.
.	.	8b-	But	.	.	.	.	.	.	.	.
.	.	8b-	you	.	.	.	.	.	.	.	.
=66	=66	=66	=66	=66	=66	=66	=66	=66	=66	=66	=66
1-VII	D-:maj	8dd-	wan-	1r	.	1r	.	.	112.302	.	voice
.	.	8b-	-na	.	.	.	.	.	.	.	.
.	.	4a-	be	.	.	.	.	.	.	.	.
.	.	4b-	bad	.	.	.	.	C	.	.	.
.	.	4a-	Just	.	.	.	.	.	.	.	.
=67	=67	=67	=67	=67	=67	=67	=67	=67	=67	=67	=67
*>Letter>B	*>Letter>B	*>Letter>B	*>Letter>B	*>Letter>B	*>Letter>B	*>Letter>B	*>Letter>B	*>Letter>B	*>Letter>B	*>Letter>B	*>Letter>B
*>Label>Chorus	*>Label>Chorus	*>Label>Chorus	*>Label>Chorus	*>Label>Chorus	*>Label>Chorus	*>Label>Chorus	*>Label>Chorus	*>Label>Chorus	*>Label>Chorus	*>Label>Chorus	*>Label>Chorus
1i	E-:min	8b-	beat	2r	.	1r	.	B	114.03	newline	voice
.	.	4.b-	it	.	.	.	.	.	.	.	.
.	.	2r	.	8e- 8g-	Beat	.	.	B	.	.	.
.	.	.	.	4.e- 4.g-	it	.	.	.	.	.	.
=68	=68	=68	=68	=68	=68	=68	=68	=68	=68	=68	=68
1-VII	D-:maj	8b-	Beat	2r	.	1r	.	B	115.752	.	voice
.	.	4.b-	it	.	.	.	.	.	.	.	.
.	.	4r	.	8d- 8f	Beat	.	.	B	.	.	.
.	.	.	.	8d- 8f	it	.	.	.	.	.	.
.	.	8r	.	8r	.	.	.	.	.	.	.
.	.	[8b-	No	[8e- [8g-	No	.	.	.	.	.	.
=69	=69	=69	=69	=69	=69	=69	=69	=69	=69	=69	=69
1i	E-:min	8b-]	_	8e-] 8g-]	_	1r	.	.	117.474	.	voice
.	.	8b-	one	8e- 8g-	one	.	.	.	.	.	.
.	.	8b-	wants	8e- 8g-	wants	.	.	.	.	.	.
.	.	8b-	to	8e- 8g-	to	.	.	.	.	.	.
.	.	4dd-	be	4g- 4b-	be	.	.	B	.	.	.
.	.	8b-	de-	8e- 8g-	de-	.	.	b	.	.	.
.	.	[8dd-	-feat	[8f [8a-	-feat-	.	.	B	.	.	.
=70	=70	=70	=70	=70	=70	=70	=70	=70	=70	=70	=70
1-VII	D-:maj	8dd-]	_	8f] 8a-]	_	1r	.	.	119.196	.	voice
.	.	8dd-	ed	8f 8a-	-ed	.	.	.	.	.	.
.	.	4r	.	4r	.	.	.	.	.	.	.
.	.	4r	.	2r	.	.	.	.	.	.	.
.	.	8r	.	.	.	.	.	.	.	.	.
.	.	[8a-	Show	.	.	.	.	.	.	.	.
=71	=71	=71	=71	=71	=71	=71	=71	=71	=71	=71	=71
1i	E-:min	8a-]	_	1r	.	1r	.	.	120.918	newline	voice
.	.	8g-	in'	.	.	.	.	.	.	.	.
.	.	8a-	how	.	.	.	.	.	.	.	.
.	.	8r	.	.	.	.	.	.	.	.	.
.	.	8g-	fun-	.	.	.	.	.	.	.	.
.	.	8a-	-ky	.	.	.	.	b	.	.	.
.	.	8r	.	.	.	.	.	.	.	.	.
.	.	[8a-	strong	.	.	.	.	.	.	.	.
=72	=72	=72	=72	=72	=72	=72	=72	=72	=72	=72	=72
1-VII	D-:maj	8a-]	_	1r	.	1r	.	.	122.648	.	voice
.	.	8g-	is	.	.	.	.	.	.	.	.
.	.	8a-	your	.	.	.	.	.	.	.	.
.	.	8r	.	.	.	.	.	.	.	.	.
.	.	8g-	fight	.	.	.	.	D	.	.	.
.	.	8r	.	.	.	.	.	.	.	.	.
.	.	8r	.	.	.	.	.	.	.	.	.
.	.	[8a-	It	.	.	.	.	.	.	.	.
=73	=73	=73	=73	=73	=73	=73	=73	=73	=73	=73	=73
1i	E-:min	8a-]	_	1r	.	1r	.	.	124.378	.	voice
.	.	8g-	does-	.	.	.	.	.	.	.	.
.	.	8a-	-n't	.	.	.	.	.	.	.	.
.	.	8r	.	.	.	.	.	.	.	.	.
.	.	8g-	mat-	.	.	.	.	.	.	.	.
.	.	8a-	-ter	.	.	.	.	.	.	.	.
.	.	8r	.	.	.	.	.	.	.	.	.
.	.	[8a-	who's	.	.	.	.	.	.	.	.
=74	=74	=74	=74	=74	=74	=74	=74	=74	=74	=74	=74
1-VII	D-:maj	8a-]	_	1r	.	1r	.	.	126.107	.	voice
.	.	8g-	wrong	.	.	.	.	.	.	.	.
.	.	8a-	or	.	.	.	.	.	.	.	.
.	.	8r	.	.	.	.	.	.	.	.	.
.	.	8g-	right	.	.	.	.	D	.	.	.
.	.	8r	.	.	.	.	.	.	.	.	.
.	.	4a-	Just	.	.	.	.	.	.	.	.
=75	=75	=75	=75	=75	=75	=75	=75	=75	=75	=75	=75
1i	E-:min	8b-	beat	2r	.	1r	.	B	127.837	newline	voice
.	.	4.b-	it	.	.	.	.	.	.	.	.
.	.	2r	.	8e- 8g-	Beat	.	.	B	.	.	.
.	.	.	.	4.e- 4.g-	it	.	.	.	.	.	.
=76	=76	=76	=76	=76	=76	=76	=76	=76	=76	=76	=76
1-VII	D-:maj	8b-	Beat	2r	.	1r	.	B	129.585	.	voice
.	.	4.b-	it	.	.	.	.	.	.	.	.
.	.	4r	.	8d- 8f	Beat	.	.	B	.	.	.
.	.	.	.	8d- 8f	it	.	.	.	.	.	.
.	.	8r	.	8r	.	.	.	.	.	.	.
.	.	[8b-	No	[8e- [8g-	No	.	.	.	.	.	.
=77	=77	=77	=77	=77	=77	=77	=77	=77	=77	=77	=77
1i	E-:min	8b-]	_	8e-] 8g-]	_	1r	.	.	131.333	.	voice
.	.	8b-	one	8e- 8g-	one	.	.	.	.	.	.
.	.	8b-	wants	8e- 8g-	wants	.	.	.	.	.	.
.	.	8b-	to	8e- 8g-	to	.	.	.	.	.	.
.	.	4dd-	be	4g- 4b-	be	.	.	B	.	.	.
.	.	8b-	de-	8e- 8g-	de-	.	.	b	.	.	.
.	.	[8dd-	-feat	[8f [8a-	-feat-	.	.	B	.	.	.
=78	=78	=78	=78	=78	=78	=78	=78	=78	=78	=78	=78
1-VII	D-:maj	8dd-]	_	8f] 8a-]	_	1r	.	.	133.081	.	voice
.	.	8dd-	ed	8f 8a-	-ed	.	.	.	.	.	.
.	.	4r	.	4r	.	.	.	.	.	.	.
.	.	4r	.	2r	.	.	.	.	.	.	.
.	.	8r	.	.	.	.	.	.	.	.	.
.	.	[8a-	Show	.	.	.	.	.	.	.	.
=79	=79	=79	=79	=79	=79	=79	=79	=79	=79	=79	=79
1i	E-:min	8a-]	_	1r	.	1r	.	.	134.828	newline	voice
.	.	8g-	in'	.	.	.	.	.	.	.	.
.	.	8a-	how	.	.	.	.	.	.	.	.
.	.	8r	.	.	.	.	.	.	.	.	.
.	.	8g-	fun-	.	.	.	.	.	.	.	.
.	.	8a-	-ky	.	.	.	.	b	.	.	.
.	.	8r	.	.	.	.	.	.	.	.	.
.	.	[8a-	strong	.	.	.	.	.	.	.	.
=80	=80	=80	=80	=80	=80	=80	=80	=80	=80	=80	=80
1-VII	D-:maj	8a-]	_	1r	.	1r	.	.	136.533	.	voice
.	.	8g-	is	.	.	.	.	.	.	.	.
.	.	8a-	your	.	.	.	.	.	.	.	.
.	.	8r	.	.	.	.	.	.	.	.	.
.	.	8g-	fight	.	.	.	.	D	.	.	.
.	.	8r	.	.	.	.	.	.	.	.	.
.	.	8r	.	.	.	.	.	.	.	.	.
.	.	[8a-	It	.	.	.	.	.	.	.	.
=81	=81	=81	=81	=81	=81	=81	=81	=81	=81	=81	=81
1i	E-:min	8a-]	_	1r	.	1r	.	.	138.238	.	voice
.	.	8g-	does-	.	.	.	.	.	.	.	.
.	.	8a-	-n't	.	.	.	.	.	.	.	.
.	.	8r	.	.	.	.	.	.	.	.	.
.	.	8g-	mat-	.	.	.	.	.	.	.	.
.	.	8a-	-ter	.	.	.	.	.	.	.	.
.	.	8r	.	.	.	.	.	.	.	.	.
.	.	[8a-	who's	.	.	.	.	.	.	.	.
=82	=82	=82	=82	=82	=82	=82	=82	=82	=82	=82	=82
1-VII	D-:maj	8a-]	_	1r	.	1r	.	.	139.943	.	voice
.	.	8g-	wrong	.	.	.	.	.	.	.	.
.	.	8a-	or	.	.	.	.	.	.	.	.
.	.	8r	.	.	.	.	.	.	.	.	.
.	.	8g-	right	.	.	.	.	D	.	.	.
.	.	8r	.	.	.	.	.	.	.	.	.
.	.	4a-	Just	.	.	.	.	.	.	.	.
=83	=83	=83	=83	=83	=83	=83	=83	=83	=83	=83	=83
*>Letter>D	*>Letter>D	*>Letter>D	*>Letter>D	*>Letter>D	*>Letter>D	*>Letter>D	*>Letter>D	*>Letter>D	*>Letter>D	*>Letter>D	*>Letter>D
*>Label>Instrumental	*>Label>Instrumental	*>Label>Instrumental	*>Label>Instrumental	*>Label>Instrumental	*>Label>Instrumental	*>Label>Instrumental	*>Label>Instrumental	*>Label>Instrumental	*>Label>Instrumental	*>Label>Instrumental	*>Label>Instrumental
1i	E-:min	8g-	Beat	1r	.	1r	.	.	141.648	newline	voice
.	.	8e-	it	.	.	.	.	.	.	.	.
.	.	8g-	Beat	.	.	.	.	.	.	.	.
.	.	8e-	it	.	.	.	.	.	.	.	.
.	.	8g-	Beat	.	.	.	.	.	.	.	.
.	.	8e-	it	.	.	.	.	.	.	.	.
.	.	8g-	Beat	.	.	.	.	.	.	.	.
.	.	8e-	it	.	.	.	.	.	.	.	.
=84	=84	=84	=84	=84	=84	=84	=84	=84	=84	=84	=84
1i	E-:min	2r	.	1r	.	1r	.	.	143.379	.	voice
.	.	8g-	Beat	.	.	.	.	.	.	.	.
.	.	8e-	it	.	.	.	.	.	.	.	.
.	.	8g-	Beat	.	.	.	.	.	.	.	.
.	.	8e-	it	.	.	.	.	.	.	.	.
=85	=85	=85	=85	=85	=85	=85	=85	=85	=85	=85	=85
1i	E-:min	1r	.	1r	.	1r	.	.	145.11	.	voice
=86	=86	=86	=86	=86	=86	=86	=86	=86	=86	=86	=86
1i	E-:min	1r	.	1r	.	1r	.	.	146.841	.	voice
=87	=87	=87	=87	=87	=87	=87	=87	=87	=87	=87	=87
1i	E-:min	1r	.	1r	.	1r	.	.	148.573	newline	voice
=88	=88	=88	=88	=88	=88	=88	=88	=88	=88	=88	=88
1i	E-:min	2r	.	1r	.	1r	.	.	150.295	.	voice
.	.	8g-	Beat	.	.	.	.	.	.	.	.
.	.	8e-	it	.	.	.	.	.	.	.	.
.	.	8g-	Beat	.	.	.	.	.	.	.	.
.	.	8e-	it	.	.	.	.	.	.	.	.
=89	=89	=89	=89	=89	=89	=89	=89	=89	=89	=89	=89
1i	E-:min	1r	.	1r	.	1r	.	.	152.018	.	voice
=90	=90	=90	=90	=90	=90	=90	=90	=90	=90	=90	=90
1i	E-:min	8g-	Beat	1r	.	1r	.	.	153.741	.	voice
.	.	8e-	it	.	.	.	.	.	.	.	.
.	.	8g-	Beat	.	.	.	.	.	.	.	.
.	.	8e-	it	.	.	.	.	.	.	.	.
.	.	2r	.	.	.	.	.	.	.	.	.
=91	=91	=91	=91	=91	=91	=91	=91	=91	=91	=91	=91
1i	E-:min	1r	.	1r	.	1r	.	.	155.464	newline	voice
=92	=92	=92	=92	=92	=92	=92	=92	=92	=92	=92	=92
1i	E-:min	1r	.	1r	.	1r	.	.	157.192	.	voice
=93	=93	=93	=93	=93	=93	=93	=93	=93	=93	=93	=93
1i	E-:min	1r	.	1r	.	1r	.	.	158.919	.	voice
=94	=94	=94	=94	=94	=94	=94	=94	=94	=94	=94	=94
1i	E-:min	8g-	Beat	1r	.	1r	.	.	160.647	.	voice
.	.	8e-	it	.	.	.	.	.	.	.	.
.	.	8g-	Beat	.	.	.	.	.	.	.	.
.	.	8e-	it	.	.	.	.	.	.	.	.
.	.	2r	.	.	.	.	.	.	.	.	.
=95	=95	=95	=95	=95	=95	=95	=95	=95	=95	=95	=95
1i	E-:min	1r	.	1r	.	1r	.	.	162.375	newline	voice
=96	=96	=96	=96	=96	=96	=96	=96	=96	=96	=96	=96
1i	E-:min	1r	.	1r	.	1r	.	.	164.109	.	voice
=97	=97	=97	=97	=97	=97	=97	=97	=97	=97	=97	=97
1i	E-:min	1r	.	1r	.	1r	.	.	165.843	.	voice
=98	=98	=98	=98	=98	=98	=98	=98	=98	=98	=98	=98
1i	E-:min	1r	.	1r	.	1r	.	.	167.577	.	voice
=99	=99	=99	=99	=99	=99	=99	=99	=99	=99	=99	=99
*>Letter>C	*>Letter>C	*>Letter>C	*>Letter>C	*>Letter>C	*>Letter>C	*>Letter>C	*>Letter>C	*>Letter>C	*>Letter>C	*>Letter>C	*>Letter>C
*>Label>Solo	*>Label>Solo	*>Label>Solo	*>Label>Solo	*>Label>Solo	*>Label>Solo	*>Label>Solo	*>Label>Solo	*>Label>Solo	*>Label>Solo	*>Label>Solo	*>Label>Solo
1i	E-:min	1r	.	1r	.	1r	.	.	169.31	newline	guitar
=100	=100	=100	=100	=100	=100	=100	=100	=100	=100	=100	=100
1-VII	D-:maj	1r	.	1r	.	1r	.	.	171.043	.	guitar
=101	=101	=101	=101	=101	=101	=101	=101	=101	=101	=101	=101
1i	E-:min	1r	.	1r	.	1r	.	.	172.776	.	guitar
=102	=102	=102	=102	=102	=102	=102	=102	=102	=102	=102	=102
1-VII	D-:maj	1r	.	1r	.	1r	.	.	174.509	.	guitar
=103	=103	=103	=103	=103	=103	=103	=103	=103	=103	=103	=103
1-VI	C-:maj	1r	.	1r	.	1r	.	.	176.242	newline	guitar
=104	=104	=104	=104	=104	=104	=104	=104	=104	=104	=104	=104
1-VII	D-:maj	1r	.	1r	.	1r	.	.	177.967	.	guitar
=105	=105	=105	=105	=105	=105	=105	=105	=105	=105	=105	=105
1i	E-:min	1r	.	1r	.	1r	.	.	179.692	.	guitar
=106	=106	=106	=106	=106	=106	=106	=106	=106	=106	=106	=106
1-VII	D-:maj	1r	.	1r	.	1r	.	.	181.416	.	guitar
=107	=107	=107	=107	=107	=107	=107	=107	=107	=107	=107	=107
1i	E-:min	1r	.	1r	.	1r	.	.	183.141	newline	guitar
=108	=108	=108	=108	=108	=108	=108	=108	=108	=108	=108	=108
1-VII	D-:maj	1r	.	1r	.	1r	.	.	184.864	.	guitar
=109	=109	=109	=109	=109	=109	=109	=109	=109	=109	=109	=109
1i	E-:min	1r	.	1r	.	1r	.	.	186.587	.	guitar
=110	=110	=110	=110	=110	=110	=110	=110	=110	=110	=110	=110
1-VII	D-:maj	1r	.	1r	.	1r	.	.	188.309	.	guitar
=111	=111	=111	=111	=111	=111	=111	=111	=111	=111	=111	=111
1-VI	C-:maj	1r	.	1r	.	1r	.	.	190.032	newline	guitar
=112	=112	=112	=112	=112	=112	=112	=112	=112	=112	=112	=112
1-VII	D-:maj	1r	.	1r	.	1r	.	.	191.76	.	guitar
=113	=113	=113	=113	=113	=113	=113	=113	=113	=113	=113	=113
1i	E-:min	1r	.	1r	.	1r	.	.	193.488	.	guitar
=114	=114	=114	=114	=114	=114	=114	=114	=114	=114	=114	=114
1-VII	D-:maj	1r	.	1r	.	1r	.	.	195.216	.	guitar
=115	=115	=115	=115	=115	=115	=115	=115	=115	=115	=115	=115
*>Letter>B	*>Letter>B	*>Letter>B	*>Letter>B	*>Letter>B	*>Letter>B	*>Letter>B	*>Letter>B	*>Letter>B	*>Letter>B	*>Letter>B	*>Letter>B
*>Label>Chorus	*>Label>Chorus	*>Label>Chorus	*>Label>Chorus	*>Label>Chorus	*>Label>Chorus	*>Label>Chorus	*>Label>Chorus	*>Label>Chorus	*>Label>Chorus	*>Label>Chorus	*>Label>Chorus
1i	E-:min	8b-	beat	2r	.	1r	.	B	196.944	newline	voice
.	.	4.b-	it	.	.	.	.	.	.	.	.
.	.	2r	.	8e- 8g-	Beat	.	.	B	.	.	.
.	.	.	.	4.e- 4.g-	it	.	.	.	.	.	.
=116	=116	=116	=116	=116	=116	=116	=116	=116	=116	=116	=116
1-VII	D-:maj	8b-	Beat	2r	.	1r	.	B	198.686	.	voice
.	.	4.b-	it	.	.	.	.	.	.	.	.
.	.	4r	.	8d- 8f	Beat	.	.	B	.	.	.
.	.	.	.	8d- 8f	it	.	.	.	.	.	.
.	.	8r	.	8r	.	.	.	.	.	.	.
.	.	[8b-	No	[8e- [8g-	No	.	.	.	.	.	.
=117	=117	=117	=117	=117	=117	=117	=117	=117	=117	=117	=117
1i	E-:min	8b-]	_	8e-] 8g-]	_	1r	.	.	200.428	.	voice
.	.	8b-	one	8e- 8g-	one	.	.	.	.	.	.
.	.	8b-	wants	8e- 8g-	wants	.	.	.	.	.	.
.	.	8b-	to	8e- 8g-	to	.	.	.	.	.	.
.	.	4dd-	be	4g- 4b-	be	.	.	B	.	.	.
.	.	8b-	de-	8e- 8g-	de-	.	.	b	.	.	.
.	.	[8dd-	-feat	[8f [8a-	-feat-	.	.	.	.	B	.
=118	=118	=118	=118	=118	=118	=118	=118	=118	=118	=118	=118
1-VII	D-:maj	8dd-]	_	8f] 8a-]	_	1r	.	.	202.17	.	voice
.	.	8dd-	ed	8f 8a-	-ed	.	.	.	.	.	.
.	.	4r	.	4r	.	.	.	.	.	.	.
.	.	4r	.	2r	.	.	.	.	.	.	.
.	.	8r	.	.	.	.	.	.	.	.	.
.	.	[8a-	Show	.	.	.	.	.	.	.	.
=119	=119	=119	=119	=119	=119	=119	=119	=119	=119	=119	=119
1i	E-:min	8a-]	_	1r	.	1r	.	.	203.912	newline	voice
.	.	8g-	in'	.	.	.	.	.	.	.	.
.	.	8a-	how	.	.	.	.	.	.	.	.
.	.	8r	.	.	.	.	.	.	.	.	.
.	.	8g-	fun-	.	.	.	.	.	.	.	.
.	.	8a-	-ky	.	.	.	.	b	.	.	.
.	.	8r	.	.	.	.	.	.	.	.	.
.	.	[8a-	strong	.	.	.	.	.	.	.	.
=120	=120	=120	=120	=120	=120	=120	=120	=120	=120	=120	=120
1-VII	D-:maj	8a-]	_	1r	.	1r	.	.	205.628	.	voice
.	.	8g-	is	.	.	.	.	.	.	.	.
.	.	8a-	your	.	.	.	.	.	.	.	.
.	.	8r	.	.	.	.	.	.	.	.	.
.	.	8g-	fight	.	.	.	.	D	.	.	.
.	.	8r	.	.	.	.	.	.	.	.	.
.	.	8r	.	.	.	.	.	.	.	.	.
.	.	[8a-	It	.	.	.	.	.	.	.	.
=121	=121	=121	=121	=121	=121	=121	=121	=121	=121	=121	=121
1i	E-:min	8a-]	_	1r	.	1r	.	.	207.344	.	voice
.	.	8g-	does-	.	.	.	.	.	.	.	.
.	.	8a-	-n't	.	.	.	.	.	.	.	.
.	.	8r	.	.	.	.	.	.	.	.	.
.	.	8g-	mat-	.	.	.	.	.	.	.	.
.	.	8a-	-ter	.	.	.	.	.	.	.	.
.	.	8r	.	.	.	.	.	.	.	.	.
.	.	[8a-	who's	.	.	.	.	.	.	.	.
=122	=122	=122	=122	=122	=122	=122	=122	=122	=122	=122	=122
1-VII	D-:maj	8a-]	_	1r	.	4.r	.	.	209.06	.	voice
.	.	8g-	wrong	.	.	.	.	.	.	.	.
.	.	8a-	or	.	.	.	.	.	.	.	.
.	.	8r	.	.	.	4.b-	Who's	.	.	.	.
.	.	8g-	right	.	.	.	.	D	.	.	.
.	.	8r	.	.	.	.	.	.	.	.	.
.	.	4a-	Just	.	.	16a-	right	.	.	.	.
.	.	.	.	.	.	8.g-	_	.	.	.	.
=123	=123	=123	=123	=123	=123	=123	=123	=123	=123	=123	=123
1i	E-:min	8b-	beat	2r	.	4.r	.	B	210.776	newline	voice
.	.	4.b-	it	.	.	.	.	.	.	.	.
.	.	.	.	.	.	[8aa-	Hoo	.	.	.	.
.	.	2r	.	8e- 8g-	Beat	2aa-]	_	B	.	.	.
.	.	.	.	4.e- 4.g-	it	.	.	.	.	.	.
=124	=124	=124	=124	=124	=124	=124	=124	=124	=124	=124	=124
1-VII	D-:maj	8b-	Beat	2r	.	2gg-	hoo	B	212.498	.	voice
.	.	4.b-	it	.	.	.	.	.	.	.	.
.	.	4r	.	8d- 8f	Beat	2r	.	B	.	.	.
.	.	.	.	8d- 8f	it	.	.	.	.	.	.
.	.	8r	.	8r	.	.	.	.	.	.	.
.	.	[8b-	No	[8e- [8g-	No	.	.	.	.	.	.
=125	=125	=125	=125	=125	=125	=125	=125	=125	=125	=125	=125
1i	E-:min	8b-]	_	8e-] 8g-]	_	1r	.	.	214.219	.	voice
.	.	8b-	one	8e- 8g-	one	.	.	.	.	.	.
.	.	8b-	wants	8e- 8g-	wants	.	.	.	.	.	.
.	.	8b-	to	8e- 8g-	to	.	.	.	.	.	.
.	.	4dd-	be	4g- 4b-	be	.	.	B	.	.	.
.	.	8b-	de-	8e- 8g-	de-	.	.	b	.	.	.
.	.	[8dd-	-feat	[8f [8a-	-feat-	.	.	B	.	.	.
=126	=126	=126	=126	=126	=126	=126	=126	=126	=126	=126	=126
1-VII	D-:maj	8dd-]	_	8f] 8a-]	_	8r	.	.	215.941	.	voice
.	.	8dd-	ed	8f 8a-	-ed	4a-	Oh	.	.	.	.
.	.	4r	.	4r	.	.	.	.	.	.	.
.	.	.	.	.	.	8a-	lord	.	.	.	.
.	.	4r	.	2r	.	4g-	_	.	.	.	.
.	.	8r	.	.	.	4r	.	.	.	.	.
.	.	[8a-	Show	.	.	.	.	.	.	.	.
=127	=127	=127	=127	=127	=127	=127	=127	=127	=127	=127	=127
1i	E-:min	8a-]	_	1r	.	2r	.	.	217.663	newline	voice
.	.	8g-	in'	.	.	.	.	.	.	.	.
.	.	8a-	how	.	.	.	.	.	.	.	.
.	.	8r	.	.	.	.	.	.	.	.	.
.	.	8g-	fun-	.	.	8r	.	.	.	.	.
.	.	8a-	-ky	.	.	8aa-	Hee	b	.	.	.
.	.	8r	.	.	.	8r	.	.	.	.	.
.	.	[8a-	strong	.	.	[8gg-	hee	.	.	.	.
=128	=128	=128	=128	=128	=128	=128	=128	=128	=128	=128	=128
1-VII	D-:maj	8a-]	_	1r	.	8gg-]	_	.	219.392	.	voice
.	.	8g-	is	.	.	8r	.	.	.	.	.
.	.	8a-	your	.	.	4r	.	.	.	.	.
.	.	8r	.	.	.	.	.	.	.	.	.
.	.	8g-	fight	.	.	4.aa-	Hee	D	.	.	.
.	.	8r	.	.	.	.	.	.	.	.	.
.	.	8r	.	.	.	.	.	.	.	.	.
.	.	[8a-	It	.	.	8gg-	Hee	.	.	.	.
=129	=129	=129	=129	=129	=129	=129	=129	=129	=129	=129	=129
1i	E-:min	8a-]	_	1r	.	8r	.	.	221.121	.	voice
.	.	8g-	does-	.	.	8gg-	hee	.	.	.	.
.	.	8a-	-n't	.	.	8aa-	_	.	.	.	.
.	.	8r	.	.	.	8r	.	.	.	.	.
.	.	8g-	mat-	.	.	2r	.	.	.	.	.
.	.	8a-	-ter	.	.	.	.	.	.	.	.
.	.	8r	.	.	.	.	.	.	.	.	.
.	.	[8a-	who's	.	.	.	.	.	.	.	.
=130	=130	=130	=130	=130	=130	=130	=130	=130	=130	=130	=130
1-VII	D-:maj	8a-]	_	1r	.	1r	.	.	222.85	.	voice
.	.	8g-	wrong	.	.	.	.	.	.	.	.
.	.	8a-	or	.	.	.	.	.	.	.	.
.	.	8r	.	.	.	.	.	.	.	.	.
.	.	8g-	right	.	.	.	.	D	.	.	.
.	.	8r	.	.	.	.	.	.	.	.	.
.	.	4a-	Just	.	.	.	.	.	.	.	.
=131	=131	=131	=131	=131	=131	=131	=131	=131	=131	=131	=131
1i	E-:min	8b-	beat	2r	.	1r	.	B	224.579	newline	voice
.	.	4.b-	it	.	.	.	.	.	.	.	.
.	.	2r	.	8e- 8g-	Beat	.	.	B	.	.	.
.	.	.	.	4.e- 4.g-	it	.	.	.	.	.	.
=132	=132	=132	=132	=132	=132	=132	=132	=132	=132	=132	=132
1-VII	D-:maj	8b-	Beat	2r	.	4.r	.	B	226.31	.	voice
.	.	4.b-	it	.	.	.	.	.	.	.	.
.	.	.	.	.	.	4b-	Beat	B	.	.	.
.	.	4r	.	8d- 8f	Beat	.	.	.	.	.	.
.	.	.	.	8d- 8f	it	8a-	it	.	.	.	.
.	.	8r	.	8r	.	4g-	_	.	.	.	.
.	.	[8b-	No	[8e- [8g-	No	.	.	.	.	.	.
=133	=133	=133	=133	=133	=133	=133	=133	=133	=133	=133	=133
1i	E-:min	8b-]	_	8e-] 8g-]	_	1r	.	.	228.041	.	voice
.	.	8b-	one	8e- 8g-	one	.	.	.	.	.	.
.	.	8b-	wants	8e- 8g-	wants	.	.	.	.	.	.
.	.	8b-	to	8e- 8g-	to	.	.	.	.	.	.
.	.	4dd-	be	4g- 4b-	be	.	.	B	.	.	.
.	.	8b-	de-	8e- 8g-	de-	.	.	b	.	.	.
.	.	[8dd-	-feat	[8f [8a-	-feat-	.	.	B	.	.	.
=134	=134	=134	=134	=134	=134	=134	=134	=134	=134	=134	=134
1-VII	D-:maj	8dd-]	_	8f] 8a-]	_	8r	.	.	229.771	.	voice
.	.	8dd-	ed	8f 8a-	-ed	8B-	Oh	.	.	.	.
.	.	4r	.	4r	.	16A-	no	.	.	.	.
.	.	.	.	.	.	16G-	_	.	.	.	.
.	.	.	.	.	.	4.E-	_	.	.	.	.
.	.	4r	.	2r	.	.	.	.	.	.	.
.	.	8r	.	.	.	4r	.	.	.	.	.
.	.	[8a-	Show	.	.	.	.	.	.	.	.
=135	=135	=135	=135	=135	=135	=135	=135	=135	=135	=135	=135
1i	E-:min	8a-]	_	1r	.	4.r	.	.	231.502	newline	voice
.	.	8g-	in'	.	.	.	.	.	.	.	.
.	.	8a-	how	.	.	.	.	.	.	.	.
.	.	8r	.	.	.	4aa-	Hee	.	.	.	.
.	.	8g-	fun-	.	.	.	.	.	.	.	.
.	.	8a-	-ky	.	.	8r	.	b	.	.	.
.	.	8r	.	.	.	4gg-	hee	.	.	.	.
.	.	[8a-	strong	.	.	.	.	.	.	.	.
=136	=136	=136	=136	=136	=136	=136	=136	=136	=136	=136	=136
1-VII	D-:maj	8a-]	_	1r	.	4.r	.	.	233.231	.	voice
.	.	8g-	is	.	.	.	.	.	.	.	.
.	.	8a-	your	.	.	.	.	.	.	.	.
.	.	8r	.	.	.	4.aa-	hee	.	.	.	.
.	.	8g-	fight	.	.	.	.	D	.	.	.
.	.	8r	.	.	.	.	.	.	.	.	.
.	.	8r	.	.	.	8gg-	hee	.	.	.	.
.	.	[8a-	It	.	.	8r	.	.	.	.	.
=137	=137	=137	=137	=137	=137	=137	=137	=137	=137	=137	=137
1i	E-:min	8a-]	_	1r	.	2r	.	.	234.96	.	voice
.	.	8g-	does-	.	.	.	.	.	.	.	.
.	.	8a-	-n't	.	.	.	.	.	.	.	.
.	.	8r	.	.	.	.	.	.	.	.	.
.	.	8g-	mat-	.	.	8r	.	.	.	.	.
.	.	8a-	-ter	.	.	8bb-	hee	.	.	.	.
.	.	8r	.	.	.	4r	.	.	.	.	.
.	.	[8a-	who's	.	.	.	.	.	.	.	.
=138	=138	=138	=138	=138	=138	=138	=138	=138	=138	=138	=138
1-VII	D-:maj	8a-]	_	1r	.	1r	.	.	236.689	.	voice
.	.	8g-	wrong	.	.	.	.	.	.	.	.
.	.	8a-	or	.	.	.	.	.	.	.	.
.	.	8r	.	.	.	.	.	.	.	.	.
.	.	8g-	right	.	.	.	.	D	.	.	.
.	.	8r	.	.	.	.	.	.	.	.	.
.	.	4a-	Just	.	.	.	.	.	.	.	.
=139	=139	=139	=139	=139	=139	=139	=139	=139	=139	=139	=139
1i	E-:min	8b-	beat	2r	.	1r	.	B	238.418	newline	voice
.	.	4.b-	it	.	.	.	.	.	.	.	.
.	.	2r	.	8e- 8g-	Beat	.	.	B	.	.	.
.	.	.	.	4.e- 4.g-	it	.	.	.	.	.	.
=140	=140	=140	=140	=140	=140	=140	=140	=140	=140	=140	=140
1-VII	D-:maj	8b-	Beat	2r	.	1r	.	B	240.153	.	voice
.	.	4.b-	it	.	.	.	.	.	.	.	.
.	.	4r	.	8d- 8f	Beat	.	.	B	.	.	.
.	.	.	.	8d- 8f	it	.	.	.	.	.	.
.	.	8r	.	8r	.	.	.	.	.	.	.
.	.	[8b-	No	[8e- [8g-	No	.	.	.	.	.	.
=141	=141	=141	=141	=141	=141	=141	=141	=141	=141	=141	=141
1i	E-:min	8b-]	_	8e-] 8g-]	_	1r	.	.	241.888	.	voice
.	.	8b-	one	8e- 8g-	one	.	.	.	.	.	.
.	.	8b-	wants	8e- 8g-	wants	.	.	.	.	.	.
.	.	8b-	to	8e- 8g-	to	.	.	.	.	.	.
.	.	4dd-	be	4g- 4b-	be	.	.	B	.	.	.
.	.	8b-	de-	8e- 8g-	de-	.	.	b	.	.	.
.	.	[8dd-	-feat	[8f [8a-	-feat-	.	.	B	.	.	.
=142	=142	=142	=142	=142	=142	=142	=142	=142	=142	=142	=142
1-VII	D-:maj	8dd-]	_	8f] 8a-]	_	1r	.	.	243.623	.	voice
.	.	8dd-	ed	8f 8a-	-ed	.	.	.	.	.	.
.	.	4r	.	4r	.	.	.	.	.	.	.
.	.	4r	.	2r	.	.	.	.	.	.	.
.	.	8r	.	.	.	.	.	.	.	.	.
.	.	[8a-	Show	.	.	.	.	.	.	.	.
=143	=143	=143	=143	=143	=143	=143	=143	=143	=143	=143	=143
*>Label>>Fadeout	*>Label>>Fadeout	*>Label>>Fadeout	*>Label>>Fadeout	*>Label>>Fadeout	*>Label>>Fadeout	*>Label>>Fadeout	*>Label>>Fadeout	*>Label>>Fadeout	*>Label>>Fadeout	*>Label>>Fadeout	*>Label>>Fadeout
1i	E-:min	8a-]	_	1r	.	1r	.	.	245.359	newline	voice
.	.	8g-	in'	.	.	.	.	.	.	.	.
.	.	8a-	how	.	.	.	.	.	.	.	.
.	.	8r	.	.	.	.	.	.	.	.	.
.	.	8g-	fun-	.	.	.	.	.	.	.	.
.	.	8a-	-ky	.	.	.	.	b	.	.	.
.	.	8r	.	.	.	.	.	.	.	.	.
.	.	[8a-	strong	.	.	.	.	.	.	.	.
=144	=144	=144	=144	=144	=144	=144	=144	=144	=144	=144	=144
1-VII	D-:maj	8a-]	_	1r	.	1r	.	.	247.084	.	voice
.	.	8g-	is	.	.	.	.	.	.	.	.
.	.	8a-	your	.	.	.	.	.	.	.	.
.	.	8r	.	.	.	.	.	.	.	.	.
.	.	8g-	fight	.	.	.	.	D	.	.	.
.	.	8r	.	.	.	.	.	.	.	.	.
.	.	8r	.	.	.	.	.	.	.	.	.
.	.	[8a-	It	.	.	.	.	.	.	.	.
=145	=145	=145	=145	=145	=145	=145	=145	=145	=145	=145	=145
1i	E-:min	8a-]	_	1r	.	1r	.	.	248.81	.	voice
.	.	8g-	does-	.	.	.	.	.	.	.	.
.	.	8a-	-n't	.	.	.	.	.	.	.	.
.	.	8r	.	.	.	.	.	.	.	.	.
.	.	8g-	mat-	.	.	.	.	.	.	.	.
.	.	8a-	-ter	.	.	.	.	.	.	.	.
.	.	8r	.	.	.	.	.	.	.	.	.
.	.	[8a-	who's	.	.	.	.	.	.	.	.
=146	=146	=146	=146	=146	=146	=146	=146	=146	=146	=146	=146
1-VII	D-:maj	8a-]	_	1r	.	1r	.	.	250.535	.	voice
.	.	8g-	wrong	.	.	.	.	.	.	.	.
.	.	8a-	or	.	.	.	.	.	.	.	.
.	.	8r	.	.	.	.	.	.	.	.	.
.	.	8g-	right	.	.	.	.	D	.	.	.
.	.	8r	.	.	.	.	.	.	.	.	.
.	.	4a-	Just	.	.	.	.	.	.	.	.
=147	=147	=147	=147	=147	=147	=147	=147	=147	=147	=147	=147
1i	E-:min	8b-	beat	2r	.	1r	.	B	252.261	newline	voice
.	.	4.b-	it	.	.	.	.	.	.	.	.
.	.	2r	.	8e- 8g-	Beat	.	.	B	.	.	.
.	.	.	.	4.e- 4.g-	it	.	.	.	.	.	.
=148	=148	=148	=148	=148	=148	=148	=148	=148	=148	=148	=148
1-VII	D-:maj	8b-	Beat	2r	.	1r	.	B	253.399	.	voice
.	.	4.b-	it	.	.	.	.	.	.	.	.
.	.	4r	.	8d- 8f	Beat	.	.	B	.	.	.
.	.	.	.	8d- 8f	it	.	.	.	.	.	.
.	.	8r	.	8r	.	.	.	.	.	.	.
.	.	[8b-	No	[8e- [8g-	No	.	.	.	.	.	.
=149	=149	=149	=149	=149	=149	=149	=149	=149	=149	=149	=149
1i	E-:min	8b-]	_	8e-] 8g-]	_	1r	.	.	254.537	.	voice
.	.	8b-	one	8e- 8g-	one	.	.	.	.	.	.
.	.	8b-	wants	8e- 8g-	wants	.	.	.	.	.	.
.	.	8b-	to	8e- 8g-	to	.	.	.	.	.	.
.	.	4dd-	be	4g- 4b-	be	.	.	B	.	.	.
.	.	8b-	de-	8e- 8g-	de-	.	.	b	.	.	.
.	.	[8dd-	-feat	[8f [8a-	-feat-	.	.	B	.	.	.
=150	=150	=150	=150	=150	=150	=150	=150	=150	=150	=150	=150
1-VII	D-:maj	8dd-]	_	8f] 8a-]	_	1r	.	.	255.675	.	voice
.	.	8dd-	ed	8f 8a-	-ed	.	.	.	.	.	.
.	.	4r	.	4r	.	.	.	.	.	.	.
.	.	2r	.	2r	.	.	.	.	.	.	.
1r;	N	r;	.	r;	.	r;	.	.	256.813	.	r
1r;	N	r;	.	r;	.	r;	.	.	257.934	.	r
*-	*-	*-	*-	*-	*-	*-	*-	*-	*-	*-	*-
!!!BillboardChartDate: 1983/04/02
!!!BillboardPeak: 1
!!!BillboardWeeksOnChart: 25
!!!COC: Michael Jackson
!!!ENC: Nathaniel Condit-Schultz
!!!EST: Awating manual error checking and editing.
!!!OTL: Beat It
!!!RDF**harte: Chris Harte's syntax, used by MIREX
!!!RDF**harmony: **recip + pitch class of root + harmonic quality
!!!RDF**leadinstrument: original McGill primary instrumentation annotation
!!!RDF**phrase: newline = linebreak in original McGill transcription
!!!RDF**timestamp: McGill audio timestamp in seconds
!!!RDT: 2017/01/12/
!!!SampleActualRank: 14
!!!SampleID#: 0629
!!!SampleTargetRank: 14
!!!MBID: de798de6-70fc-49f6-b580-339cd2e62052
